X:14
T:Derwentwater's Farewell
Z:Jack Campin, http://www.campin.me.uk/
S:Northumbrian Minstrelsy
M:3/4
L:1/8
K:G
D2|D> E G2 G2|A> B  D3                  \
                       B|c> B A3  G|E4
G2|D> E G2 G2|A> B  D3                  \
                       B|c> B c2 d2|e4
e2|d> B A2 G2|c> d  e3                  \
                       e|d> B A3  G|E4
G2|D> E G2 G2|A> B Hc3                  \
                       e|d B  A3  G|G4|]

